logos/aws-msk.svg

<?xml version="1.0" encoding="UTF-8"?>
<svg width="256px" height="256px" viewBox="0 0 256 256" version="1.1" xmlns="http://www.w3.org/2000/svg" xmlns:xlink="http://www.w3.org/1999/xlink" preserveAspectRatio="xMidYMid">
    <title>AWS Managed Streaming for Apache Kafka (MSK)</title>
    <defs>
        <linearGradient x1="0%" y1="100%" x2="100%" y2="0%" id="linearGradient-1">
            <stop stop-color="#4D27A8" offset="0%"></stop>
            <stop stop-color="#A166FF" offset="100%"></stop>
        </linearGradient>
    </defs>
    <g>
        <rect fill="url(#linearGradient-1)" x="0" y="0" width="256" height="256"></rect>
        <path d="M115.226039,118.326684 L115.226039,89.5566771 L121.61302,89.5566771 L121.61302,102.343347 L130.23225,89.5566771 L137.302637,89.5566771 L127.3134,103.008254 L138.126557,118.326684 L130.551599,118.326684 L121.61302,104.421181 L121.61302,118.326684 L115.226039,118.326684 Z M211.2,157.175784 L209.060362,159.026654 C204.74915,162.801919 198.949772,164.691149 193.144006,164.691149 C187.338241,164.691149 181.529283,162.801919 177.211684,159.017064 L172.945181,155.321717 C166.68594,149.836236 155.729075,149.836236 149.482609,155.30893 L145.190558,159.026654 C136.571328,166.58038 121.973884,166.586773 113.34188,159.017064 L109.075377,155.321717 C102.816136,149.836236 91.8592714,149.836236 85.6128048,155.30893 L81.3207539,159.026654 C72.7015238,166.58038 58.10408,166.586773 49.4720762,159.017064 L47.3452118,157.175784 L51.5254902,152.339226 L53.6651286,154.193293 C59.9275632,159.678774 70.8844278,159.678774 77.1277011,154.20608 L81.419752,150.485159 C90.0389821,142.93463 104.636426,142.93463 113.26843,150.497946 L117.534932,154.193293 C123.797367,159.678774 134.754232,159.678774 140.997505,154.20608 L145.289556,150.485159 C153.908786,142.93463 168.50623,142.93463 177.138234,150.497946 L181.404737,154.193293 C187.663977,159.678774 198.620842,159.678774 204.867309,154.20608 L207.019721,152.339226 L211.2,157.175784 Z M204.47451,195.647677 L208.654788,200.481038 L206.51515,202.335105 C202.207132,206.110369 196.407753,207.996403 190.605182,207.996403 C184.796223,207.996403 178.987264,206.107173 174.666472,202.322318 L170.399969,198.626971 C164.140729,193.147883 153.183864,193.147883 146.937397,198.614184 L142.645346,202.335105 C134.032503,209.88883 119.435059,209.892027 110.796668,202.322318 L106.530165,198.626971 C100.274118,193.147883 89.3172534,193.147883 83.067593,198.614184 L78.7755421,202.335105 C70.1595056,209.88883 55.5620621,209.892027 46.9268643,202.322318 L44.8,200.481038 L48.9802787,195.647677 L51.1199171,197.501744 C57.3823514,202.980832 68.3392163,202.984028 74.5824896,197.511334 L78.8745405,193.79361 C87.4969638,186.243081 102.08802,186.239884 110.723218,193.8032 L114.989721,197.501744 C121.252155,202.980832 132.20902,202.984028 138.452293,197.511334 L142.744344,193.79361 C151.366768,186.243081 165.957824,186.239884 174.593022,193.8032 L178.859525,197.501744 C185.121959,202.980832 196.078824,202.984028 202.322097,197.511334 L204.47451,195.647677 Z M204.47451,175.380805 L208.654788,180.21097 L206.51515,182.065037 C197.899113,189.621959 183.30167,189.625155 174.666472,182.055447 L170.399969,178.360099 C164.140729,172.874618 153.183864,172.877814 146.937397,178.347312 L142.645346,182.068233 C138.337328,185.843498 132.534756,187.729532 126.735378,187.729532 C120.926419,187.729532 115.11746,185.840301 110.796668,182.055447 L106.530165,178.360099 C100.274118,172.874618 89.3172534,172.877814 83.067593,178.347312 L78.7755421,182.068233 C70.1626992,189.621959 55.5652554,189.621959 46.9268643,182.055447 L44.8,180.21097 L48.9802787,175.380805 L51.1199171,177.234872 C57.3823514,182.720354 68.3392163,182.717157 74.5824896,177.244462 L78.8745405,173.526738 C87.4969638,165.976209 102.094408,165.969816 110.723218,173.536328 L114.989721,177.231676 C121.252155,182.720354 132.20902,182.717157 138.452293,177.244462 L142.744344,173.526738 C151.366768,165.976209 165.964212,165.969816 174.593022,173.536328 L178.859525,177.231676 C185.121959,182.720354 196.078824,182.717157 202.322097,177.244462 L204.47451,175.380805 Z M76.9041568,121.523352 C80.4265766,121.523352 83.2911373,124.390762 83.2911373,127.916687 C83.2911373,131.442611 80.4265766,134.310021 76.9041568,134.310021 C73.3817373,134.310021 70.5171766,131.442611 70.5171766,127.916687 C70.5171766,124.390762 73.3817373,121.523352 76.9041568,121.523352 L76.9041568,121.523352 Z M124.80651,54.393335 C128.32893,54.393335 131.19349,57.2607456 131.19349,60.7866698 C131.19349,64.3125939 128.32893,67.1800048 124.80651,67.1800048 C121.28409,67.1800048 118.419529,64.3125939 118.419529,60.7866698 C118.419529,57.2607456 121.28409,54.393335 124.80651,54.393335 L124.80651,54.393335 Z M179.095843,127.916687 C179.095843,131.442611 176.231282,134.310021 172.708863,134.310021 C169.186443,134.310021 166.321882,131.442611 166.321882,127.916687 C166.321882,124.390762 169.186443,121.523352 172.708863,121.523352 C176.231282,121.523352 179.095843,124.390762 179.095843,127.916687 L179.095843,127.916687 Z M124.80651,73.5733398 C126.933374,73.5733398 128.913338,73.0011363 130.679338,72.0741027 L163.214616,119.445518 C161.882931,120.935165 160.905723,122.728495 160.391571,124.720019 L89.2214486,124.720019 C88.7072966,122.728495 87.7300886,120.935165 86.3984032,119.445518 L118.933681,72.0741027 C120.699681,73.0011363 122.679645,73.5733398 124.80651,73.5733398 L124.80651,73.5733398 Z M76.9041568,140.703356 C82.8376618,140.703356 87.797152,136.611622 89.2214486,131.113354 L160.391571,131.113354 C161.815868,136.611622 166.775358,140.703356 172.708863,140.703356 C179.753702,140.703356 185.482823,134.968535 185.482823,127.916687 C185.482823,120.864838 179.753702,115.130017 172.708863,115.130017 C171.236664,115.130017 169.844302,115.430503 168.522197,115.890824 L135.479154,67.7777814 C136.801259,65.7670778 137.580471,63.3695773 137.580471,60.7866698 C137.580471,53.7348214 131.851349,48 124.80651,48 C117.76167,48 112.032549,53.7348214 112.032549,60.7866698 C112.032549,63.3695773 112.811761,65.7670778 114.133866,67.7777814 L81.0908224,115.890824 C79.7687178,115.430503 78.3763558,115.130017 76.9041568,115.130017 C69.8593174,115.130017 64.1301962,120.864838 64.1301962,127.916687 C64.1301962,134.968535 69.8593174,140.703356 76.9041568,140.703356 L76.9041568,140.703356 Z" fill="#FFFFFF"></path>
    </g>
</svg>

<svg preserveAspectRatio="xMidYMid" viewBox="0 0 256 256" xmlns="http://www.w3.org/2000/svg">
  <defs>
    <linearGradient id="aws-msk_svg__a" x1="0%" x2="100%" y1="100%" y2="0%">
      <stop offset="0%" stop-color="#4D27A8"/>
      <stop offset="100%" stop-color="#A166FF"/>
    </linearGradient>
  </defs>
  <path fill="url(#aws-msk_svg__a)" d="M0 0h256v256H0z"/>
  <path fill="#FFF" d="M115.226 118.327v-28.77h6.387v12.786l8.62-12.786h7.07l-9.99 13.451 10.814 15.319h-7.575l-8.939-13.906v13.906h-6.387Zm95.974 38.849-2.14 1.85c-4.31 3.776-10.11 5.665-15.916 5.665-5.806 0-11.615-1.89-15.932-5.674l-4.267-3.695c-6.26-5.486-17.216-5.486-23.462-.013l-4.292 3.718c-8.62 7.553-23.217 7.56-31.85-.01l-4.266-3.695c-6.259-5.486-17.216-5.486-23.462-.013l-4.292 3.718c-8.62 7.553-23.217 7.56-31.849-.01l-2.127-1.841 4.18-4.837 2.14 1.854c6.263 5.486 17.22 5.486 23.463.013l4.292-3.72c8.619-7.551 23.216-7.551 31.848.012l4.267 3.695c6.262 5.486 17.22 5.486 23.463.013l4.292-3.72c8.619-7.551 23.216-7.551 31.848.012l4.267 3.695c6.259 5.486 17.216 5.486 23.462.013l2.153-1.867 4.18 4.837Zm-6.725 38.472 4.18 4.833-2.14 1.854c-4.308 3.775-10.107 5.661-15.91 5.661-5.809 0-11.618-1.889-15.939-5.674l-4.266-3.695c-6.26-5.48-17.216-5.48-23.463-.013l-4.292 3.721c-8.612 7.554-23.21 7.557-31.848-.013l-4.267-3.695c-6.256-5.48-17.213-5.48-23.462-.013l-4.292 3.721c-8.616 7.554-23.214 7.557-31.85-.013l-2.126-1.841 4.18-4.833 2.14 1.854c6.262 5.479 17.22 5.482 23.462.01l4.293-3.718c8.622-7.55 23.213-7.554 31.848.01l4.267 3.698c6.262 5.479 17.219 5.482 23.462.01l4.292-3.718c8.623-7.55 23.214-7.554 31.849.01l4.267 3.698c6.262 5.479 17.219 5.482 23.462.01l2.153-1.864Zm0-20.267 4.18 4.83-2.14 1.854c-8.616 7.557-23.213 7.56-31.849-.01l-4.266-3.695c-6.26-5.485-17.216-5.482-23.463-.013l-4.292 3.721c-4.308 3.775-10.11 5.662-15.91 5.662-5.809 0-11.618-1.89-15.938-5.675l-4.267-3.695c-6.256-5.485-17.213-5.482-23.462-.013l-4.292 3.721c-8.613 7.554-23.21 7.554-31.85-.013l-2.126-1.844 4.18-4.83 2.14 1.854c6.262 5.485 17.22 5.482 23.462.01l4.293-3.718c8.622-7.55 23.22-7.557 31.848.01l4.267 3.695c6.262 5.488 17.219 5.485 23.462.012l4.292-3.717c8.623-7.55 23.22-7.557 31.849.01l4.267 3.695c6.262 5.488 17.219 5.485 23.462.012l2.153-1.863Zm-127.57-53.858c3.522 0 6.386 2.868 6.386 6.394 0 3.526-2.864 6.393-6.387 6.393-3.522 0-6.387-2.867-6.387-6.393s2.865-6.394 6.387-6.394Zm47.902-67.13c3.522 0 6.386 2.868 6.386 6.394 0 3.526-2.864 6.393-6.386 6.393-3.523 0-6.387-2.867-6.387-6.393s2.864-6.394 6.387-6.394Zm54.289 73.524c0 3.526-2.865 6.393-6.387 6.393-3.523 0-6.387-2.867-6.387-6.393s2.864-6.394 6.387-6.394c3.522 0 6.387 2.868 6.387 6.394Zm-54.29-54.344c2.127 0 4.107-.572 5.873-1.499l32.536 47.372a12.637 12.637 0 0 0-2.823 5.274h-71.17a12.637 12.637 0 0 0-2.824-5.274l32.536-47.372c1.766.927 3.746 1.5 5.873 1.5Zm-47.902 67.13c5.934 0 10.893-4.091 12.317-9.59h71.17c1.425 5.499 6.384 9.59 12.318 9.59 7.045 0 12.774-5.734 12.774-12.786s-5.73-12.787-12.774-12.787c-1.472 0-2.865.3-4.187.76L135.48 67.779a12.68 12.68 0 0 0 2.101-6.991c0-7.052-5.729-12.787-12.773-12.787-7.045 0-12.774 5.735-12.774 12.787 0 2.583.779 4.98 2.1 6.99l-33.042 48.114c-1.322-.46-2.715-.761-4.187-.761-7.045 0-12.774 5.735-12.774 12.787 0 7.052 5.73 12.786 12.774 12.786Z"/>
</svg>
